X:181
T:Hamilton House
C:Joe Buchanan's Scottish Tome - Page 271.1
I:271 1
Z:Carl Allison
R:Jig
L:1/8
M:6/8
K:G
ud | !>!"G"g3 dBd | "C"c2 B "D"A2 c | "G"BdB "Em"(A2 G) | "A7"FEF "D"D3 | 
!>!"G"g3 dBd | "C"c2 B "D"Ace | "G"dcB "D7"AGF | "G"G3- G2 F/E/ | 
"G"D3 "Am"EDE | "B"DGB "G"d2 d | "C"c2 B "C#/A"A2 G | "D"FEF "G"uD2 uD | 
"C"E2 c "Am"cde | "G"dBG "Em"G2 g | "G"edB "D"cAF | "G"G3 uG2 |] 
vB/c/ | "G"dBd "Am"ege | "B"dBd "C"(c2 A) | "G"dBG "Em"EFG | "A7"ABA "D7"FED | 
"G"dBd "Am"ege | "B"dBd "C"(c2 A) | "G"dBG "D7"DEF | "G"G2- G2 :| 

